X: 11
T:Mrs Tilney Long's Waltz,1812. Car.11
M:3/8
Q:50
S:CarlisleMS,Anon.c1812.AGG's transcription
R:Waltz
O:England
A:Carlisle
Z:vmp.Chris Partington
K:G
dc|.B2(BA).B2|.B2(BA).B2|c2cdec|Bdg2 dc|!
.B2(BA).B2|.B2(BA).B2|A2BdcA|G4:|!
AG|FAdfaf|dAfdaf|age^cAc|dAfda2|!
FAdfaf|dAfdaf|a^g=gfge|d4|]
